X:1
T:Down in a valley - Wilbye
T:#
%%score 1 2 3 4
L:1/8
Q:1/4=120
M:4/4
K:C
V:1 treble nm="Soprano I"
V:2 treble nm="Soprano II"
V:3 treble nm="Alto" snm="A"
V:4 treble-8 nm="Tenor" snm="T"
V:1
"^Down in a valley as Alexis trips""^John Wilbye\n (1574-1638)""^1st part of a 2-part madrigal: 2nd part is \"Hard destinies are love and beauty\"." z4!mf! e4- | %1
w: Down|
 e2 dc B2 c2 | d6 cB | A2 B2 c4- | c2 BA (^G^F) E2 |[M:4/4] e3 e d2 B2 | c4 z4 | z8 | z8 | z8 | %10
w: * in a val- ley,|down in a|val- ley, down|* in a val\- * ley|as A- lex- is|trips,||||
 z8 | z2!p! A3 A ^G2 | A2 c2 B4 | A2 A3 A ^G2 | A2 c2 B4 | A2!pp! e2 c4- | c4 B4 | z4!f! e2 ed | %18
w: |Daph- ne sat|sweet- ly sleep-|ing, Daph- ne sat|sweet- ly sleep-|ing, sat sleep\-|* ing.|Soon as the|
 c2 e2 d2 d2 | d2 c2 B4- | B2!p! e2 d2 c2 | B2 A2 ^G4 | E2 c2 B2 A2 | G2 F2 E4 | C2 G2 F2 E2 | %25
w: wan- ton touch'd her|rud- dy lips,|* She nice- ly|falls a- weep-|ing, she nice- ly|falls a- weep-|ing, she nice- ly|
 D2 C2 G4 | G4!mf! G2 B2- | BA A3 G (G2- | G2 ^F2) G4- | G2!f! G2 A2 =F2 | G2 E2 F4 | E4 z4 | z8 | %33
w: falls a- weep-|ing. The wag|* full soft- ly lifts|* * her,|* And to and|fro he sifts|her,||
 z4!p! d2 e2- | ed d3 c (c2- | c2 BA B4) | c8 |!f! B2 B4 c2 | z2 B4 A2 | ^G2 E2 e4- | e2 (dc) B4 | %41
w: and to|* and fro me sifts||her:|But when nor|sighs nor|kiss- es mov'd|* her * pi-|
 A4 z4 | z2"^dim." c2 B2 ^G2 | A2 A2 B2 B2 | z2!p! c2 B2 ^G2 | A2 (=GA) B2 B2 | %46
w: ty,|nor sighs could|move her pi- ty,|nor tears could|move her * pi- ty,|
 z2"^cresc." e2 d2 B2 | c2 c2 d2 d2 | z2!f! e2 d2 B2 | c2 c2 B2 B2 | z4!pp! E4 | c8- | c4 B4 | %53
w: nor sighs could|move her pi- ty,|nor tears could|move her pi- ty;|With|plaints|* he|
 A8- | A4 (B2 c2) | d8- | d4 c4 | B8- | B4 (c2 d2) | e8- | e4 d4 | c8- | c8 | d8 | B4 A4 | B8 | %66
w: war\-|* bles *|forth,|* he|war\-|* bles *|forth|* this|mourn\-||ful,|mourn- ful|dit-|
 A8 |!f! ^G2 G4 A2 | z2 B2 d2 c2 | B3 B (AB c2) | B2 (A4 ^G2) | A2"^dim." c2 B2 ^G2 | A2 A2 B2 B2 | %73
w: ty.|But when nor|sighs, Ah! nor|kiss- es mov'd * *|her pi\- *|ty, nor sighs could|move her pi- ty,|
 z2!p! c2 B2 ^G2 | A2 A2 B2 B2 | z2"^cresc." e2 d2 B2 | c2 c2 d2 d2 | z2!f! e2 d2 B2 | %78
w: nor tears could|move her pi- ty,|nor sighs could|move her pi- ty,|nor tears could|
 c2 c2 d2 d2 | z4!pp! E4 | c8- | c4 B4 | A8- | A4 (B2 c2) | d8- | d4 c4 | B8- | B4 (c2 d2) | e8- | %89
w: move her pi- ty;|With|plaints|* he|war\-|* bles *|forth,|* he|war\-|* bles *|forth,|
 e4 d4 | c8- | c4 B4 | A8- | A4 B4 | ^G4 A4- | A4 ^G4 | A16 |] %97
w: * he|war\-|* bles|forth|* this|mourn- ful|* dit-|ty.|
V:2
!mf! c6 BA | G2 A2 B4- | B2 AG ^F2 G2 | A6 G=F | E2 ^F2 ^G4- |[M:4/4] G2 A2 A2 ^G2 | A4 z4 | z8 | %8
w: Down in a|val- ley, down|* in a val- ley,|down in a|val- ley as|* A- lex- is|trips,||
 z8 | z8 | z8 | z4 z2!p! e2- | ee A2 B2 B2 | c2 A2 z2 e2- | ee A2 B2 B2 |!pp! c2 B2 A4- | A4 ^G4 | %17
w: |||Daph\-|* ne sat sweet- ly|sleep- ing, Daph\-|* ne sat sweet- ly,|sweet- ly sleep\-|* ing.|
 z4!f! c2 cd | e2 c2 B3 c | d2 e2 d4 | z4 z2!p! e2 | e2 c2 B3 A | ^G2 E2 z2 c2 | c2 A2 =G3 F | %24
w: Soon as the|wan- ton touch'd her|rud- dy lips,|She|nice- ly falls a-|weep- ing, she|nice- ly falls a-|
 E2 C2 z2 G2 | (G2 FE D4) | E4 z4 | z8 | z8 |!f! d2 e3 d d2- | dc (c4 B2) | c4!p! A2 B2- | %32
w: weep- ing, a-|weep\- * * *|ing.|||And to and fro|* he sifts *|her, the wag|
 BA A3 G (G2- | G2 ^F2) G2 E2 | A2 =F2 G2 E2 | G8 | G8 |!f! ^G2 G4 A2 | z2 B2 d2 c2 | %39
w: * full soft- ly lifts|* * her, and|to and fro he|sifts|her:|But when nor|sighs, Ah! nor|
 B3 B (AB c2) | B2 (A4 ^G2) | A2"^dim." c2 B2 ^G2 | A2 A2 B2 B2 | z2!p! c2 B2 ^G2 | A2 A2 B2 B2 | %45
w: kiss- es mov'd * *|her pi\- *|ty, nor sighs could|move her pi- ty,|nor tears could|move her pi- ty,|
 z2"^cresc." e2 d2 B2 | c2 c2 d2 d2 | z2!f! e2 d2 B2 | c2 c2 d2 d2 | z4!pp! E4 | c8- | c4 B4 | %52
w: nor sighs could|move her pi- ty,|nor tears could|move her pi- ty;|With|plaints|* he|
 A8- | A4 (B2 c2) | d8- | d4 c4 | B8- | B4 (c2 d2) | e8- | e4 d4 | c8- | c4 B4 | A8- | A4 B4 | %64
w: war\-|* bles *|forth,|* he|war\-|* bles *|forth,|* he|war\-|* bles|forth|* this|
 ^G4 A4- | A4 ^G4 | A4 z4 |!f! B2 B4 c2 | z2 B4 A2 | ^G2 E2 e4- | e2 (dc) B4 | A4 z4 | %72
w: mourn- ful|* dit-|ty.|But when nor|sighs nor|kiss- es mov'd|* her * pi-|ty,|
 z2"^dim." c2 B2 ^G2 | A2 A2 B2 B2 | z2!p! c2 B2 ^G2 | A2 (=GA) B2 B2 | z2"^cresc." e2 d2 B2 | %77
w: nor sighs could|move her pi- ty,|nor tears could|move her * pi- ty,|nor sighs could|
 c2 c2 d2 d2 | z2!f! e2 d2 B2 | c2 c2 B2 B2 | z4!pp! E4 | c8- | c4 B4 | A8- | A4 (B2 c2) | d8- | %86
w: move her pi- ty,|nor tears could|move her pi- ty;|With|plaints|* he|war\-|* bles *|forth,|
 d4 c4 | B8- | B4 (c2 d2) | e8- | e4 d4 | c8- | c8 | d8 | B4 A4 | B8 | ^c16 |] %97
w: * he|war\-|* bles *|forth|* this|mourn\-||ful,|mourn- ful|dit-|ty.|
V:3
!mf! A6 GF | E2 F2 G4- | G2 FE D2 E2 | =F6 ED | C2 D2 E4- |[M:4/4] E2 (DC) B,2 E2 | E4!f! E4- | %7
w: Down in a|val- ley, down|* in a val- ley,|down in a|val- ley as|* A\- * lex- is|trips, down|
 E2 DC B,2 C2 | D6 CB, | A,2 B,2 C4- | C2 B,A, ^G,2 B,2 | E3 E D2 B,2 | C2!p! E3 E E2 | E2 F2 E4 | %14
w: * in a val- ley,|down in a|val- ley, down|* in a ~val- ley|as A- lex- is|trips, Daph- ne sat|sweet- ly sleep-|
 E2 E3 E E2 |!pp! E2 E2 E2 D2 | E8 | z8 |!f! G2 GA B2 G2 | G2 (EF) G2 G2 | G4 z4 | %21
w: ing, Daph- ne sat|sweet- ly sleep\- *|ing.||Soon as the wan- ton|touch'd her * rud- dy|lips,|
 z2!p! E2 E2 (DC) | B,2 A,2 B,2 C2 | z2 C2 C2 (B,A,) | G,4 z2 G,2 | (G,3 A, B,4) | C4 z2!mf! D2 | %27
w: She nice- ly *|falls a- weep- ing,|she nice- ly *|falls a-|weep\- * *|ing. The|
 E2 C2 D2 B,2 | C4 B,4 | z8 | z8 | z2!p! E2 F2 D2 | E2 C2 D4 | C4 z2 C2 | C2 D2 B,2 C2 | D8 | E8 | %37
w: wag full soft- ly|lifts her,|||and to and|fro he sifts|her, and|to and fro he|sifts|her:|
!f! E2 E4 E2 | z2 E4 E2 | E6 E2 | E2 E2 E4 | E4 z4 | z2"^dim." A2 ^G2 E2 | C2 A,2 E2 E2 | %44
w: But when nor|sighs, nor|kiss- es|mov'd her pi-|ty,|nor sighs could|move her pi- ty,|
 z2!p! A2 ^G2 E2 | (CD) (EF) G2 G2 | z2"^cresc." c2 B2 G2 | E2 C2 G2 G2 | z2!f! c2 B2 B2 | %49
w: nor sighs could|move * her * pi- ty,|nor sighs could|move her pi- ty,|nor tears could|
 A2 A4 ^G2 | A8- | A8 | z8 |!pp! A,8 | F8- | F4 E4 | D8- | D4 (E2 F2) | G8- | G4 F4 | E8- | %61
w: move her pi-|ty;|||With|plaints|* he|war\-|* bles *|forth,|* he|war\-|
 E4 (F2 G2) | A6 G2 | F4 F4 | E8- | E8 | E8 |!f! E2 E4 E2 | z2 E4 E2 | E6 E2 | E2 E2 E4 | E4 z4 | %72
w: * bles *|forth this|mourn- ful|dit\-||ty.|But when nor|sighs, nor|kiss- es|mov'd her pi-|ty,|
 z2"^dim." A2 ^G2 E2 | C2 A,2 E2 E2 | z2!p! A2 ^G2 E2 | (CD) (EF) G2 G2 | z2"^cresc." c2 B2 G2 | %77
w: nor sighs could|move her pi- ty,|nor sighs could|move * her * pi- ty,|nor sighs could|
 E2 C2 G2 G2 | z2!f! c2 B2 B2 | A2 A4 ^G2 | A8- | A8 | z8 |!pp! A,8 | F8- | F4 E4 | D8- | %87
w: move her pi- ty,|nor tears could|move her pi-|ty;|||With|plaints|* he|war\-|
 D4 (E2 F2) | G8- | G4 F4 | E8- | E4 (F2 G2) | A6 G2 | F4 F4 | E8- | E8 | E16 |] %97
w: * bles *|forth,|* he|war\-|* bles *|forth this|mourn- ful|dit\-||ty.|
V:4
 z8 | z8 | z8 | z8 | z8 |[M:4/4][K:treble-8] z8 | z2!f! c4 BA | G2 A2 B4- | B2 AG ^F2 G2 | %9
w: ||||||Down in a|val- ley, down|* in a val- ley|
 A6 =G=F | E2 ^F2 ^G4- | G2 A2 B2 B2 | A4 z2!p! e2- | ee (dc) B2 B2 | c2 A4 e2- | ee!pp! ^G2 A4 | %16
w: down in a|val- ley as|* A- lex- is|trips, Daph\-|* ne sat * sweet- ly|sleep- ing, Daph\-|* ne sat sleep-|
 e4 z4 |!f! c2 cd e2 e2 | e2 ef g2 d2 | g2 g2 g2 d2 | d2!p! e2 g2 c2 | e2 A2 B2 B2 | z2 c2 e2 A2 | %23
w: ing.|Soon as the wan- ton,|Soon as the wan- ton|touch'd her rud- dy|lips, She nice- ly|falls a- weep- ing,|she nice- ly|
 c2 F2 G2 G2 | z2 G2 A2 c2 | d2 G2 G4 | G4 z2!mf! G2 | c2 A2 B2 G2 | A4 G4 | z8 | z2!f! c2 f2 d2 | %31
w: falls a- weep- ing,|she nice- ly|falls a- weep-|ing. The|wag full soft- ly|lifts her,||And to and|
 e2!p! c2 d4 | c4 z2 G2 | c2 A2 B2 G2 | (A4 G4) | G8- | G4 z4 |!f! B2 e4 c2 | z2 e2 B2 (cd) | %39
w: fro he sifts|her, and|to and fro he|sifts *|her:||But when nor|sighs, Ah! nor *|
 e6 E2 | ^G2 A2 B4 | c2"^dim." e2 e2 e2 | e2 e2 e2 e2- | e2!p! e2 e2 e2 | e2 e2 e2 e2- | %45
w: kiss- es|mov'd her pi-|ty, nor sighs could|move her pi- ty,|* nor tears could|move her pi- ty,|
 e2"^cresc." g2 g3 g | g2 g2 g4 | g4 z2!f! G2 | G3 A B2 G2 | (ABcd e4) | A8 | z8 |!pp! A8 | f8- | %54
w: * nor sighs could|move her pi-|ty, nor|tears could move her|pi\- * * * *|ty;||With|plaints|
 f4 e4 | d8- | d4 (e2 f2) | g8- | g4 f4 | e8- | e4 (f2 g2) | a8 | A8 | d8- | d4 c4 | B8 | ^c8 | %67
w: * he|war\-|* bles *|forth,|* he|war\-|* bles *|forth|this|mourn\-|* ful|dit-|ty.|
!f! B2 e4 =c2 | z2 e2 B2 (cd) | e6 E2 | ^G2 A2 B4 | c2"^dim." e2 e2 e2 | e2 e2 e2 e2- | %73
w: But when nor|sighs, Ah! nor *|kiss- es|mov'd her pi-|ty, nor sighs could|move her pi- ty,|
 e2!p! e2 e2 e2 | e2 e2 e2 e2- | e2"^cresc." g2 g3 g | g2 g2 g4 | g4 z2!f! G2 | G3 A B2 G2 | %79
w: * nor tears could|move her pi- ty,|* nor sighs could|move her pi-|ty, nor|tears could move her|
 (ABcd e4) | A8 | z8 |!pp! A8 | f8- | f4 e4 | d8- | d4 (e2 f2) | g8- | g4 f4 | e8- | e4 (f2 g2) | %91
w: pi\- * * * *|ty;||With|plaints|* he|war\-|* bles *|forth,|* he|war\-|* bles *|
 a8 | A8 | d8- | d4 c4 | B8 | A16 |] %97
w: forth|this|mourn\-|* ful|dit-|ty.|

